assets/svg/wallet_channel_private.svg

<svg width="24" height="24" viewBox="0 0 24 24" fill="none" xmlns="http://www.w3.org/2000/svg">
<path fill-rule="evenodd" clip-rule="evenodd" d="M11.9525 3.40039C10.1058 3.40038 8.65859 3.40037 7.5294 3.55219C6.37361 3.70758 5.46159 4.03185 4.74575 4.7477C4.0299 5.46355 3.70563 6.37557 3.55023 7.53136C3.39842 8.66054 3.39843 10.1078 3.39844 11.9545V12.0463C3.39843 13.893 3.39842 15.3402 3.55023 16.4694C3.70563 17.6252 4.0299 18.5372 4.74575 19.2531C5.46159 19.9689 6.37361 20.2932 7.5294 20.4486C8.65859 20.6004 10.1058 20.6004 11.9525 20.6004H12.0443C13.8911 20.6004 15.3383 20.6004 16.4675 20.4486C17.6233 20.2932 18.5353 19.9689 19.2511 19.2531C19.967 18.5372 20.2912 17.6252 20.4466 16.4694C20.5985 15.3402 20.5984 13.893 20.5984 12.0463V11.9545C20.5984 10.1078 20.5985 8.66055 20.4466 7.53136C20.2912 6.37557 19.967 5.46355 19.2511 4.7477C18.5353 4.03185 17.6233 3.70758 16.4675 3.55219C15.3383 3.40037 13.8911 3.40038 12.0443 3.40039H11.9525ZM5.59427 5.59623C6.05 5.1405 6.66658 4.87899 7.6893 4.74149C8.72928 4.60167 10.0959 4.60039 11.9984 4.60039C13.901 4.60039 15.2676 4.60167 16.3076 4.74149C17.3303 4.87899 17.9469 5.1405 18.4026 5.59623C18.8583 6.05195 19.1198 6.66853 19.2573 7.69125C19.3972 8.73124 19.3984 10.0978 19.3984 12.0004C19.3984 13.903 19.3972 15.2695 19.2573 16.3095C19.1198 17.3323 18.8583 17.9488 18.4026 18.4046C17.9469 18.8603 17.3303 19.1218 16.3076 19.2593C15.2676 19.3991 13.901 19.4004 11.9984 19.4004C10.0959 19.4004 8.72928 19.3991 7.6893 19.2593C6.66658 19.1218 6.05 18.8603 5.59427 18.4046C5.13855 17.9488 4.87704 17.3323 4.73953 16.3095C4.59971 15.2695 4.59844 13.903 4.59844 12.0004C4.59844 10.0978 4.59971 8.73124 4.73953 7.69125C4.87704 6.66853 5.13855 6.05195 5.59427 5.59623Z" fill="#0166FF"/>
<path d="M9.03125 9.46875L15.3332 9.50426" stroke="#0166FF" stroke-width="1.2" stroke-linecap="round" stroke-linejoin="round"/>
<path d="M9 14.4951L12.7695 14.5219" stroke="#0166FF" stroke-width="1.2" stroke-linecap="round" stroke-linejoin="round"/>
</svg>

<svg xmlns="http://www.w3.org/2000/svg" width="24" height="24" fill="none"><path fill="#0166FF" fill-rule="evenodd" d="M11.953 3.4c-1.847 0-3.294 0-4.424.152-1.155.156-2.067.48-2.783 1.196S3.706 6.376 3.55 7.53c-.152 1.13-.152 2.577-.152 4.424v.091c0 1.847 0 3.294.152 4.423.156 1.156.48 2.068 1.196 2.784s1.628 1.04 2.783 1.196c1.13.151 2.577.151 4.424.151h.091c1.847 0 3.294 0 4.424-.151 1.155-.156 2.067-.48 2.783-1.196s1.04-1.628 1.196-2.784c.152-1.129.151-2.576.151-4.423v-.091c0-1.847 0-3.294-.151-4.424-.156-1.155-.48-2.067-1.196-2.783s-1.628-1.04-2.783-1.196C15.338 3.4 13.89 3.4 12.044 3.4zM5.594 5.596c.456-.455 1.073-.717 2.095-.855 1.04-.14 2.407-.14 4.31-.14s3.269 0 4.309.14c1.022.138 1.639.4 2.095.855.455.456.717 1.073.854 2.095.14 1.04.141 2.407.141 4.31s0 3.269-.14 4.309c-.138 1.022-.4 1.639-.855 2.095-.456.455-1.073.717-2.095.854-1.04.14-2.407.141-4.31.141s-3.269 0-4.309-.14c-1.022-.138-1.639-.4-2.095-.855-.455-.456-.717-1.073-.854-2.096-.14-1.04-.142-2.406-.142-4.309 0-1.902.002-3.269.142-4.309.137-1.022.399-1.64.854-2.095" clip-rule="evenodd"/><path stroke="#0166FF" stroke-linecap="round" stroke-linejoin="round" stroke-width="1.2" d="m9.031 9.469 6.302.035M9 14.495l3.77.027"/></svg>
